static/images/mobile/copyright/wikipedia-tagline-lrc.svg

<?xml version="1.0" encoding="UTF-8"?>
<svg width="80px" height="16px" viewBox="0 0 80 16" version="1.1" xmlns="http://www.w3.org/2000/svg" xmlns:xlink="http://www.w3.org/1999/xlink">
    <title>wikipedia-tagline-lrc</title>
    <g id="Page-1" stroke="none" stroke-width="1" fill="none" fill-rule="evenodd">
        <path d="M0.42258171,10.432486 C0.448993067,11.2776494 0.792340707,11.9379333 2.03367448,11.9379333 C2.79960383,11.9379333 3.43347639,11.7002311 4.17299439,11.3040607 C4.30505117,11.2248267 4.35787389,11.1455926 4.35787389,11.0663585 C4.35787389,10.5381314 4.01452625,9.85143612 3.43347639,9.1911522 C2.8788379,8.58369099 2.13931991,8.05546385 1.42621327,7.71211621 C1.18851106,7.60647078 1.10927699,7.474414 1.10927699,7.34235721 C1.10927699,7.104655 1.37339056,6.57642786 1.61109277,6.23308022 L1.69032684,6.23308022 C2.48266755,6.73489601 3.38065368,7.44800264 4.0409376,8.2667547 C4.64839881,9.0062727 5.01815781,9.77220205 5.01815781,10.5909541 C5.01815781,11.1984153 4.85968967,11.7794652 4.5955761,12.3076923 C3.72400132,12.8359194 2.79960383,13.2320898 1.87520634,13.2320898 C0.76592935,13.2320898 7.10542736e-15,12.6246286 7.10542736e-15,11.172004 C7.10542736e-15,11.0135358 7.10542736e-15,10.7758336 0.0528227138,10.4588973 L0.42258171,10.4588973 L0.42258171,10.432486 Z M11.9643447,8.02905249 L12.6510399,9.34962034 C12.9151535,9.85143612 13.1528557,10.3796633 13.1528557,11.2248267 L13.1528557,12.3076923 C13.1528557,13.1792671 12.6774513,14.1036646 11.911522,15.0280621 C11.3040607,15.6619346 10.7758336,15.9260482 10.3004292,15.9260482 C9.58732255,15.9260482 8.74215913,15.6619346 7.79135028,15.1601189 L7.89699571,14.8167712 C8.21393199,14.9224166 8.55727963,15.0016507 8.97986134,15.0016507 C10.3532519,15.0016507 11.7794652,13.8131397 12.4133377,12.360515 C12.4925718,12.2020469 12.5189832,12.0435787 12.5189832,11.9379333 C12.5189832,11.7794652 12.4397491,11.5945857 12.3869264,11.4097062 C12.0435787,10.6173655 11.6474084,9.90425883 11.1984153,9.24397491 C11.4361175,8.8213932 11.6474084,8.42522285 11.8851106,8.02905249 L11.9643447,8.02905249 Z M7.60647078,3.22218554 L7.68570485,3.2485969 C7.89699571,5.3879168 7.94981842,7.87058435 7.94981842,10.141961 C7.94981842,10.7494223 7.92340707,11.3304721 7.87058435,11.7530538 C7.84417299,12.281281 7.58005943,12.7038627 6.99900957,13.3377352 L6.89336415,13.2585012 C6.99900957,12.6510399 6.99900957,11.9379333 6.99900957,11.3040607 L6.99900957,10.3532519 C6.99900957,8.55727963 6.81413008,5.9425553 6.65566193,4.25222846 C6.9197755,3.90888082 7.31594586,3.48629911 7.60647078,3.22218554 Z M11.0399472,4.64839881 C11.4361175,4.93892374 11.8322879,5.28227138 12.2284582,5.70485309 C12.0171674,6.04820073 11.7530538,6.39154837 11.4097062,6.65566193 C11.0399472,6.28590294 10.6437768,5.96896666 10.2476065,5.65203037 C10.51172,5.30868273 10.7758336,4.96533509 11.0399472,4.64839881 Z M17.8540773,1.18851106 C17.7484318,1.45262463 17.6691978,1.74314955 17.5635523,1.92802905 C17.1937933,2.24496534 16.7448003,2.40343348 16.1901618,2.40343348 C15.5827006,2.40343348 14.8695939,2.24496534 14.3677781,2.24496534 C14.20931,2.24496534 14.0244305,2.58831297 13.8131397,3.01089468 L13.7339056,3.01089468 L13.3905579,2.40343348 C13.3905579,1.95444041 13.5754374,1.32056784 14.2885441,1.32056784 C14.9752394,1.32056784 15.6619346,1.61109277 16.427864,1.61109277 C16.6919776,1.61109277 16.9560911,1.58468141 17.2202047,1.47903599 C17.4050842,1.39980191 17.5899637,1.29415649 17.7748432,1.1620997 L17.8540773,1.18851106 Z M15.2393529,13.2585012 C15.3449983,12.6510399 15.3449983,11.9379333 15.3449983,11.3040607 L15.3449983,10.3532519 C15.3449983,8.55727963 15.1601189,5.9425553 15.0016507,4.25222846 C15.2657643,3.90888082 15.6619346,3.48629911 15.9524596,3.22218554 L16.0316936,3.2485969 C16.2429845,5.3879168 16.2958072,7.87058435 16.2958072,10.141961 C16.2958072,10.7494223 16.2693958,11.3304721 16.2165731,11.7530538 C16.1901618,12.281281 15.9260482,12.7038627 15.3449983,13.3377352 L15.2393529,13.2585012 Z M26.9924067,5.67844173 C27.0188181,7.21030043 27.0188181,8.71574777 27.0452294,10.2476065 C27.0452294,10.9343017 27.1244635,11.3832948 27.4149884,11.620997 C27.6299888,11.7882195 27.9530261,11.8690124 28.325469,11.8829194 C28.427748,11.8195655 28.561602,11.7794652 28.7355563,11.7794652 L28.9468471,11.7794652 L28.9468471,11.8322879 C29.6599538,11.8322879 30.2410036,11.3304721 30.5843513,10.0891383 C30.6899967,9.69296798 30.9541103,9.29679762 31.2974579,8.90062727 C31.6672169,8.55727963 32.0633873,8.31957742 32.5387917,8.31957742 C33.7273027,8.31957742 34.4404094,9.95708155 34.5988775,11.6738197 C34.3875867,12.5718059 34.0178277,12.9415649 33.5688346,12.9415649 C32.5916144,12.9415649 31.6408055,12.4925718 30.6635853,11.7794652 L30.5843513,11.7794652 C30.3202377,12.6510399 29.7655992,13.0472103 28.8940244,13.0472103 L28.7355563,13.0472103 L28.682,13.044 L28.6827336,13.1528557 L28.4714427,13.1528557 C27.5206339,13.1528557 26.8075272,12.8887422 26.4377682,11.7794652 C25.9095411,11.990756 25.3020799,12.1756355 24.5361505,12.1756355 C23.5061076,12.1756355 22.7401783,11.8058765 22.7401783,11.0399472 C22.7401783,10.7494223 22.8458237,10.4060746 23.0571146,9.90425883 C23.4796963,9.03268405 24.5097392,8.13469792 26.1736547,7.21030043 L26.120832,6.47078244 C26.3585342,6.18025751 26.6226477,5.88973259 26.8867613,5.67844173 L26.9924067,5.67844173 Z M32.3010895,9.50808848 C31.746451,9.50808848 31.2710466,9.82502476 30.9805216,10.4588973 C31.2710466,10.881479 31.7728623,11.1984153 32.3803235,11.4625289 C32.7500825,11.620997 33.1462529,11.7530538 33.5424232,11.7530538 C33.7008914,11.7530538 33.8065368,11.7266425 33.8593595,11.6474084 C33.5688346,10.1683724 32.934962,9.50808848 32.3010895,9.50808848 Z M26.2793001,8.2667547 C24.5361505,9.16474084 23.6117531,9.90425883 23.6117531,10.4060746 C23.6117531,10.7758336 24.1928029,10.9607131 24.8794982,10.9607131 C25.3020799,10.9607131 25.751073,10.881479 26.3321228,10.6965995 L26.2793001,8.2667547 Z M37.1079564,2.98448333 L37.1871905,3.01089468 C37.3298118,4.9362826 37.344074,7.1825685 37.3455002,9.38392869 L37.3456586,10.6701882 C37.3456586,11.3040607 37.6890063,11.5945857 38.0851766,11.7266425 C38.2832618,11.7926708 38.4996882,11.8220168 38.6427497,11.8299647 L38.7266302,11.8132894 C38.7656359,11.8084443 38.807087,11.8058765 38.851106,11.8058765 L39.0095741,11.8058765 L39.0095741,11.8322879 C39.8547375,11.8322879 40.5150215,11.8058765 40.9376032,11.6474084 C41.2809508,11.5153516 41.4922417,11.3832948 41.4922417,11.2248267 C41.4922417,10.7758336 41.0168372,9.7986134 40.5150215,8.79498184 C40.7527237,8.37240013 40.9904259,8.00264114 41.2545395,7.68570485 L41.3073622,7.68570485 C41.7563552,8.47804556 42.2845824,9.69296798 42.2845824,10.6701882 C42.2845824,11.4097062 41.9940574,11.9643447 41.5978871,12.4925718 C41.148894,12.9415649 40.4621987,13.0736217 38.9567514,13.0736217 L38.851106,13.0736217 L38.851106,13.100033 L38.7190492,13.100033 C37.9531198,13.100033 37.4513041,12.9415649 37.0551337,12.5453945 C36.4476725,11.9379333 36.4476725,11.251238 36.4476725,9.7986134 C36.4476725,7.92340707 36.3420271,5.99537801 36.1835589,3.90888082 C36.5269066,3.53912182 36.8174315,3.22218554 37.1079564,2.98448333 Z M40.3565533,4.54275338 C40.7527237,4.83327831 41.148894,5.17662595 41.5450644,5.59920766 C41.3337735,5.9425553 41.06966,6.28590294 40.7263123,6.55001651 C40.3565533,6.18025751 39.960383,5.86332123 39.5642126,5.54638495 C39.8283262,5.20303731 40.0924397,4.85968967 40.3565533,4.54275338 Z M45.1634203,2.93166061 L45.2426543,2.95807197 C45.4011225,5.09739188 45.4011225,7.63288214 45.4011225,10.062727 L45.4011225,10.6173655 C45.4011225,11.251238 45.7444701,11.541763 46.1406405,11.6738197 C46.3783427,11.7530538 46.6424563,11.7794652 46.774513,11.7794652 C46.9329812,11.8322879 47.3027402,11.7530538 47.5668537,11.620997 C48.1214922,11.3040607 48.3327831,10.7494223 48.7025421,10.062727 C48.9402443,9.56091119 49.1515352,9.13832948 49.6005282,8.55727963 L49.7061737,8.55727963 C50.2872235,9.32320898 50.8682734,10.0363156 51.58138,10.7758336 C52.2944866,11.541763 52.9547706,11.8322879 53.6150545,11.8322879 L54.1168703,11.8322879 C55.0148564,11.8322879 55.7015517,11.5945857 56.1769561,10.9078904 L56.6787719,10.141961 L57.4447012,9.87784747 L57.4711126,9.93067019 C57.1013536,10.5645428 56.83724,11.0399472 56.83724,11.3304721 C56.83724,11.6474084 57.0749422,11.8322879 57.3654672,11.8322879 C57.6559921,11.8322879 57.9729284,11.7266425 58.2106306,11.541763 C58.4483328,11.3568835 58.7124464,11.0135358 58.8445031,10.6701882 L59.0822053,10.0891383 L59.8217233,9.74579069 L59.8481347,9.77220205 C59.5576098,10.51172 59.4519643,10.881479 59.4519643,11.251238 C59.4519643,11.5153516 59.6104325,11.8322879 60.0066028,11.8322879 C60.3235391,11.8322879 60.53483,11.7266425 60.6932981,11.620997 C60.983823,11.4361175 61.1422912,11.0927699 61.274348,10.6701882 C61.3007593,10.51172 61.3799934,10.3268405 61.4592275,9.90425883 L62.1987455,9.40244305 L62.2251568,9.42885441 C62.0931,9.85143612 61.9874546,10.4060746 61.9874546,10.7758336 C61.9874546,11.518536 62.6331331,11.8142303 63.5151181,11.8314812 C63.5783086,11.8144501 63.6501696,11.8058765 63.7306042,11.8058765 L63.8890723,11.8058765 L63.8890723,11.8322879 C64.7342357,11.8322879 65.3945196,11.8058765 65.8171014,11.6474084 C66.160449,11.5153516 66.3717398,11.3832948 66.3717398,11.2248267 C66.3717398,10.7758336 65.8963354,9.7986134 65.3945196,8.79498184 C65.6322219,8.37240013 65.8699241,8.00264114 66.1340376,7.68570485 L66.1868603,7.68570485 C66.6358534,8.47804556 67.1640806,9.69296798 67.1640806,10.6701882 C67.1640806,11.4097062 66.8735556,11.9643447 66.4773853,12.4925718 C66.0283922,12.9415649 65.3416969,13.0736217 63.8362496,13.0736217 L63.809,13.073 L63.8098382,13.100033 L63.4929019,13.100033 C62.2779795,13.100033 61.723341,12.730274 61.4856388,12.1756355 L61.4328161,12.1756355 C60.8781776,12.8095081 60.3235391,13.100033 59.7689006,13.100033 C59.3463189,13.100033 58.8445031,12.9679762 58.7124464,12.281281 L58.686035,12.281281 C58.2370419,12.7566854 57.7088148,13.100033 56.9957082,13.100033 C56.467481,13.100033 56.1241334,12.8359194 56.0448993,12.2548696 L56.0184879,12.2548696 C55.4110267,12.9415649 54.5922747,13.100033 53.9319908,13.100033 L53.7735226,13.100033 L53.72,13.097 L53.6150545,13.100033 C52.7698911,13.100033 52.2152526,12.7830967 51.6342027,12.0699901 L51.6077914,12.0699901 L51.6077914,12.2284582 C51.6077914,13.5754374 50.9475074,14.2621327 50.3928689,14.2621327 C49.4420601,14.2621327 48.544074,13.3113239 48.3327831,12.1492242 L48.2799604,12.1492242 C47.9102014,12.7038627 47.3819742,13.0736217 46.6160449,13.0736217 C46.034995,13.0736217 45.5595906,12.9151535 45.1370089,12.4925718 C44.5295477,11.8851106 44.5031363,11.1984153 44.5031363,9.74579069 C44.5031363,7.87058435 44.3974909,5.9425553 44.2390228,3.8560581 C44.5823704,3.48629911 44.8728953,3.16936283 45.1634203,2.93166061 Z M49.4156487,9.90425883 L49.362826,9.90425883 C49.0458897,10.4853087 48.8874216,10.8286563 48.8874216,11.2248267 C48.8874216,11.990756 49.5212942,12.9679762 50.4192803,12.9679762 C50.6569825,12.9679762 50.9475074,12.6774513 50.9475074,12.2548696 C50.9475074,11.990756 50.8946847,11.7794652 50.6041598,11.4097062 C50.2344008,10.9078904 49.8118191,10.432486 49.4156487,9.90425883 Z M65.2624629,4.54275338 C65.6586332,4.83327831 66.0548036,5.17662595 66.4509739,5.59920766 C66.2396831,5.9425553 65.9755695,6.28590294 65.6322219,6.55001651 C65.2624629,6.18025751 64.8662925,5.86332123 64.4701222,5.54638495 C64.7342357,5.20303731 64.9983493,4.85968967 65.2624629,4.54275338 Z M44.8728953,-1.77635684e-15 C45.2690657,-1.77635684e-15 45.4803566,0.237702212 45.4803566,0.475404424 C45.4803566,0.713106636 45.3218884,0.924397491 45.1634203,1.10927699 L45.1370089,1.10927699 C45.0313635,0.897986134 44.9257181,0.76592935 44.8200726,0.739517993 C44.7408386,0.713106636 44.6351931,0.713106636 44.5031363,0.713106636 C44.1597887,0.713106636 43.8164411,0.897986134 43.8164411,1.05645428 C43.8164411,1.5318587 44.6351931,1.69032684 45.216243,1.69032684 C45.4451414,1.69032684 45.6623015,1.67858846 45.8833743,1.67076287 L46.2198745,1.66391548 L46.2462859,1.66391548 C46.1406405,1.9016177 46.0085837,2.13931991 45.8765269,2.32419941 C44.8993067,2.48266755 44.0541433,2.74678112 43.3410366,3.0637174 L43.3146253,3.03730604 L43.5523275,2.61472433 C43.6315616,2.5090789 43.8428524,2.35061076 44.0013206,2.29778805 L44.0013206,2.27137669 C43.5523275,2.13931991 43.2353912,1.84879498 43.2353912,1.42621327 C43.2353912,1.1620997 43.4202707,0.818752063 43.6843843,0.554638495 C44.0013206,0.237702212 44.476725,-1.77635684e-15 44.8728953,-1.77635684e-15 Z M72.2350611,4.27863982 C71.2050182,4.35787389 69.8844503,4.38428524 68.6959393,4.38428524 L68.6695279,4.35787389 L68.9336415,3.75041268 C70.307032,3.75041268 71.7332453,3.69758996 72.7368769,3.64476725 L72.7368769,3.69758996 L72.2350611,4.27863982 Z M71.3106636,12.0699901 C70.1749752,12.0699901 69.1713437,11.541763 69.1713437,10.2211951 C69.1713437,9.58732255 69.4090459,9.03268405 69.8052162,8.53086827 C70.2542093,8.02905249 70.7560251,7.71211621 71.2050182,7.71211621 C71.786068,7.71211621 72.3142951,8.10828656 72.6840541,8.8213932 C73.0538131,9.50808848 73.3179267,10.432486 73.3179267,11.5153516 C73.3179267,12.4397491 73.0802245,13.2849125 72.5784087,14.1036646 C71.7068339,15.4242324 70.8616705,15.9788709 70.0693298,15.9788709 C69.1713437,15.9788709 68.2469462,15.688346 67.2433146,15.0280621 L67.4017828,14.7111258 C67.8771872,14.948828 68.3525916,15.0544734 68.827996,15.0544734 C69.8052162,15.0544734 70.8088478,14.5526576 71.7068339,13.5490261 C72.155827,13.0736217 72.5519974,12.4925718 72.6312314,11.911522 C72.1822384,12.0171674 71.7332453,12.0699901 71.3106636,12.0699901 Z M70.8616705,8.95344998 C70.4126775,8.95344998 69.7523935,9.45526576 69.7523935,9.82502476 C69.7523935,10.432486 70.6239683,10.8550677 71.416309,10.8550677 C71.786068,10.8550677 72.1822384,10.8286563 72.525586,10.7230109 C72.2878838,9.74579069 71.7068339,8.95344998 70.8616705,8.95344998 Z M75.4044239,10.432486 C75.4308353,11.2776494 75.7741829,11.9379333 77.0155167,11.9379333 C77.781446,11.9379333 78.4153186,11.7002311 79.1548366,11.3040607 C79.2868934,11.2248267 79.3397161,11.1455926 79.3397161,11.0663585 C79.3397161,10.5381314 78.9963684,9.85143612 78.4153186,9.1911522 C77.8606801,8.58369099 77.1211621,8.05546385 76.4080555,7.71211621 C76.1703533,7.60647078 76.0911192,7.474414 76.0911192,7.34235721 C76.0911192,7.104655 76.3552328,6.57642786 76.592935,6.23308022 L76.672169,6.23308022 C77.4645097,6.73489601 78.3624959,7.44800264 79.0227798,8.2667547 C79.630241,9.0062727 80,9.77220205 80,10.5909541 C80,11.1984153 79.8415319,11.7794652 79.5774183,12.3076923 C78.7058435,12.8359194 77.781446,13.2320898 76.8570485,13.2320898 C75.7477715,13.2320898 74.9818422,12.6246286 74.9818422,11.172004 C74.9818422,11.0135358 74.9818422,10.7758336 75.0346649,10.4588973 L75.4044239,10.4588973 L75.4044239,10.432486 Z" id="wikipedia-tagline-lrc" fill="#000000" fill-rule="nonzero"></path>
    </g>
</svg>

<svg xmlns="http://www.w3.org/2000/svg" width="80" height="16"><path fill="#000" fill-rule="nonzero" d="M.423 10.432c.026.846.37 1.506 1.61 1.506.767 0 1.4-.238 2.14-.634.132-.08.185-.158.185-.238 0-.528-.343-1.215-.925-1.875a6.815 6.815 0 0 0-2.007-1.479c-.237-.106-.317-.238-.317-.37 0-.237.264-.766.502-1.109h.08c.792.502 1.69 1.215 2.35 2.034.607.74.977 1.505.977 2.324 0 .607-.158 1.188-.422 1.717-.872.528-1.796.924-2.72.924-1.11 0-1.876-.607-1.876-2.06 0-.158 0-.396.053-.713h.37v-.027ZM11.964 8.03l.687 1.32c.264.502.502 1.03.502 1.876v1.083c0 .871-.476 1.796-1.241 2.72-.608.634-1.136.898-1.612.898-.713 0-1.558-.264-2.509-.766l.106-.343c.317.105.66.185 1.083.185 1.373 0 2.8-1.189 3.433-2.641a.985.985 0 0 0 .106-.423c0-.159-.08-.343-.132-.528a13.052 13.052 0 0 0-1.189-2.166c.238-.423.45-.819.687-1.215h.08ZM7.606 3.222l.08.027c.211 2.139.264 4.622.264 6.893 0 .607-.027 1.188-.08 1.611-.026.528-.29.95-.871 1.585l-.106-.08C7 12.652 7 11.939 7 11.305v-.95c0-1.797-.185-4.411-.343-6.102.264-.343.66-.766.95-1.03Zm3.434 1.426c.396.29.792.634 1.188 1.057-.21.343-.475.687-.818.95-.37-.37-.766-.686-1.162-1.003.264-.343.528-.687.792-1.004Zm6.814-3.46c-.106.265-.185.555-.29.74-.37.317-.82.475-1.374.475-.607 0-1.32-.158-1.822-.158-.159 0-.344.343-.555.766h-.08l-.342-.608c0-.449.184-1.082.898-1.082.686 0 1.373.29 2.139.29.264 0 .528-.026.792-.132.185-.08.37-.185.555-.317l.08.027Zm-2.615 12.07c.106-.607.106-1.32.106-1.954v-.95c0-1.797-.185-4.411-.343-6.102.264-.343.66-.766.95-1.03l.08.027c.211 2.139.264 4.622.264 6.893 0 .607-.027 1.188-.08 1.611-.026.528-.29.95-.871 1.585l-.106-.08Zm11.753-7.58c.027 1.532.027 3.038.053 4.57 0 .686.08 1.135.37 1.373.215.167.538.248.91.262a.763.763 0 0 1 .41-.104h.212v.053c.713 0 1.294-.502 1.637-1.743.106-.396.37-.792.713-1.188.37-.344.766-.581 1.242-.581 1.188 0 1.901 1.637 2.06 3.354-.211.898-.581 1.268-1.03 1.268-.977 0-1.928-.45-2.905-1.163h-.08c-.264.872-.818 1.268-1.69 1.268h-.158l-.054-.003v.109h-.21c-.951 0-1.664-.264-2.034-1.374-.528.212-1.136.397-1.902.397-1.03 0-1.796-.37-1.796-1.136 0-.29.106-.634.317-1.136.423-.871 1.453-1.77 3.117-2.694l-.053-.74c.238-.29.502-.58.766-.792h.105Zm5.31 3.83c-.556 0-1.031.317-1.321.95.29.423.792.74 1.4 1.005.37.158.765.29 1.161.29.159 0 .265-.026.317-.106-.29-1.479-.924-2.139-1.558-2.139Zm-6.023-1.241c-1.743.898-2.667 1.637-2.667 2.14 0 .369.58.554 1.267.554.423 0 .872-.08 1.453-.264l-.053-2.43Zm10.829-5.283.08.027c.142 1.925.156 4.172.158 6.373v1.286c0 .634.343.925.74 1.057.197.066.414.095.557.103l.084-.017a1.01 1.01 0 0 1 .124-.007h.159v.026c.845 0 1.505-.026 1.928-.185.343-.132.554-.264.554-.422 0-.45-.475-1.426-.977-2.43.238-.423.475-.792.74-1.11h.052c.45.793.978 2.008.978 2.985 0 .74-.29 1.294-.687 1.823-.45.449-1.136.58-2.641.58h-.106v.027h-.132c-.766 0-1.268-.158-1.664-.555-.607-.607-.607-1.294-.607-2.746 0-1.876-.106-3.804-.264-5.89.343-.37.633-.687.924-.925Zm3.249 1.559c.396.29.792.634 1.188 1.056-.211.344-.475.687-.819.951-.37-.37-.766-.687-1.162-1.004.264-.343.528-.686.793-1.003Zm4.806-1.611.08.026c.158 2.14.158 4.675.158 7.105v.554c0 .634.343.925.74 1.057.237.08.501.105.634.105.158.053.528-.026.792-.158.554-.317.766-.872 1.136-1.558.237-.502.449-.925.898-1.506h.105a23.872 23.872 0 0 0 1.875 2.219c.713.766 1.374 1.056 2.034 1.056h.502c.898 0 1.585-.237 2.06-.924l.502-.766.766-.264.026.053c-.37.634-.634 1.109-.634 1.4 0 .316.238.501.528.501.291 0 .608-.105.846-.29.237-.185.501-.528.634-.872l.237-.58.74-.344.026.026c-.29.74-.396 1.11-.396 1.48 0 .263.158.58.555.58.317 0 .528-.105.686-.211.29-.185.45-.528.581-.95.027-.16.106-.344.185-.767l.74-.502.026.027c-.132.422-.238.977-.238 1.347 0 .743.646 1.038 1.528 1.055a.83.83 0 0 1 .216-.025h.158v.026c.845 0 1.506-.026 1.928-.185.343-.132.555-.264.555-.422 0-.45-.476-1.426-.977-2.43.237-.423.475-.792.739-1.11h.053c.449.793.977 2.008.977 2.985 0 .74-.29 1.294-.687 1.823-.449.449-1.135.58-2.64.58h-.028v.027h-.316c-1.215 0-1.77-.37-2.007-.924h-.053c-.555.634-1.11.924-1.664.924-.423 0-.924-.132-1.057-.819h-.026c-.449.476-.977.819-1.69.819-.529 0-.872-.264-.951-.845h-.027c-.607.687-1.426.845-2.086.845h-.158l-.054-.003-.105.003c-.845 0-1.4-.317-1.98-1.03h-.027v.158c0 1.347-.66 2.034-1.215 2.034-.95 0-1.849-.95-2.06-2.113h-.053c-.37.555-.898.925-1.664.925-.581 0-1.056-.159-1.479-.581-.607-.608-.634-1.295-.634-2.747 0-1.875-.106-3.803-.264-5.89.343-.37.634-.687.924-.924Zm4.253 6.972h-.053c-.317.581-.476.925-.476 1.32 0 .767.634 1.744 1.532 1.744.238 0 .529-.29.529-.713 0-.264-.053-.476-.344-.845-.37-.502-.792-.978-1.188-1.506Zm15.846-5.361c.397.29.793.634 1.189 1.056-.211.344-.475.687-.819.951-.37-.37-.766-.687-1.162-1.004.264-.343.528-.686.792-1.003ZM44.872 0c.397 0 .608.238.608.475 0 .238-.158.45-.317.634h-.026c-.106-.211-.211-.343-.317-.37-.08-.026-.185-.026-.317-.026-.343 0-.687.185-.687.343 0 .476.82.634 1.4.634.23 0 .446-.011.667-.02l.337-.006h.026a3.913 3.913 0 0 1-.37.66c-.977.159-1.822.423-2.535.74l-.026-.027.237-.422c.08-.106.29-.264.45-.317V2.27c-.45-.132-.767-.422-.767-.845 0-.264.185-.607.45-.871C44 .238 44.476 0 44.872 0Zm27.363 4.279c-1.03.079-2.35.105-3.54.105l-.025-.026.264-.608c1.373 0 2.8-.052 3.803-.105v.053l-.502.58Zm-.924 7.791c-1.136 0-2.14-.528-2.14-1.849 0-.634.238-1.188.634-1.69.45-.502.951-.819 1.4-.819.581 0 1.11.396 1.48 1.11.369.686.633 1.61.633 2.693 0 .925-.238 1.77-.74 2.589-.871 1.32-1.716 1.875-2.509 1.875-.898 0-1.822-.29-2.826-.95l.159-.318c.475.238.95.343 1.426.343.977 0 1.98-.501 2.879-1.505.449-.475.845-1.056.924-1.637a5.812 5.812 0 0 1-1.32.158Zm-.45-3.117c-.448 0-1.109.502-1.109.872 0 .607.872 1.03 1.664 1.03.37 0 .766-.026 1.11-.132-.238-.977-.82-1.77-1.664-1.77Zm4.543 1.48c.027.845.37 1.505 1.612 1.505.765 0 1.4-.238 2.139-.634.132-.08.185-.158.185-.238 0-.528-.344-1.215-.925-1.875a6.815 6.815 0 0 0-2.007-1.479c-.238-.106-.317-.238-.317-.37 0-.237.264-.766.502-1.109h.08c.792.502 1.69 1.215 2.35 2.034.607.74.977 1.505.977 2.324 0 .607-.158 1.188-.423 1.717-.871.528-1.796.924-2.72.924-1.11 0-1.875-.607-1.875-2.06 0-.158 0-.396.053-.713h.37v-.027Z"/></svg>
